files/resources/svgs/general/s-cog.svg

<svg width="24" height="24" viewBox="0 0 24 24" fill="none" xmlns="http://www.w3.org/2000/svg">
<path d="M17.0039 10.4069C17.1423 10.8419 16.7882 11.2494 16.3317 11.2494H12.8667C12.5988 11.2494 12.3512 11.1064 12.2172 10.8744L10.4845 7.87349C10.2561 7.47789 10.4321 6.96735 10.8784 6.87021C11.2398 6.79157 11.6151 6.75015 12 6.75015C14.344 6.75015 16.3293 8.28635 17.0039 10.4069Z" fill="#0F172A"/>
<path d="M8.11938 8.46409C8.42728 8.12639 8.95767 8.22903 9.18619 8.62478L10.9182 11.6244C11.0522 11.8564 11.0522 12.1424 10.9182 12.3744L9.18577 15.375C8.95726 15.7708 8.42679 15.8735 8.11891 15.5357C7.26853 14.6027 6.75 13.362 6.75 12.0001C6.75 10.6381 7.26872 9.39712 8.11938 8.46409Z" fill="#0F172A"/>
<path d="M10.8778 17.1299C10.4315 17.0327 10.2555 16.5223 10.4839 16.1267L12.2172 13.1244C12.3512 12.8923 12.5988 12.7494 12.8668 12.7494H16.3322C16.7886 12.7494 17.1426 13.1567 17.0044 13.5917C16.3304 15.7131 14.3447 17.2501 12 17.2501C11.6148 17.2501 11.2393 17.2087 10.8778 17.1299Z" fill="#0F172A"/>
<path fill-rule="evenodd" clip-rule="evenodd" d="M21.0007 12.7494C21.4149 12.7494 21.7507 12.4136 21.7507 11.9994C21.7507 11.5852 21.4149 11.2494 21.0007 11.2494H20.2171C20.1753 10.7852 20.095 10.3322 19.9795 9.89341L20.7143 9.62597C21.1035 9.4843 21.3042 9.05392 21.1625 8.66469C21.0209 8.27545 20.5905 8.07476 20.2012 8.21643L19.4664 8.4839C19.2695 8.06647 19.0386 7.66823 18.7773 7.29273L19.3771 6.78945C19.6944 6.5232 19.7358 6.05013 19.4695 5.73282C19.2033 5.41552 18.7302 5.37413 18.4129 5.64038L17.8126 6.14409C17.4869 5.82081 17.1344 5.52452 16.7588 5.25884L17.1502 4.58093C17.3573 4.22221 17.2344 3.76351 16.8756 3.55641C16.5169 3.3493 16.0582 3.47221 15.8511 3.83093L15.4604 4.50766C15.0465 4.31618 14.614 4.15801 14.1664 4.03656L14.3021 3.26708C14.374 2.85916 14.1016 2.47017 13.6937 2.39824C13.2858 2.32631 12.8968 2.59869 12.8249 3.00661L12.6889 3.77767C12.462 3.75894 12.2325 3.74938 12.0007 3.74938C11.769 3.74938 11.5394 3.75895 11.3124 3.77773L11.1764 3.00665C11.1045 2.59873 10.7155 2.32635 10.3076 2.39828C9.89966 2.47021 9.62728 2.8592 9.69921 3.26712L9.83492 4.0368C9.38749 4.15824 8.95506 4.31639 8.54113 4.50783L8.15018 3.83075C7.94306 3.47204 7.48436 3.34915 7.12565 3.55627C6.76694 3.76339 6.64405 4.22209 6.85117 4.5808L7.24273 5.25893C6.86722 5.52447 6.51483 5.82066 6.18921 6.14386L5.58845 5.63976C5.27114 5.37351 4.79807 5.4149 4.53182 5.7322C4.26557 6.04951 4.30696 6.52257 4.62426 6.78883L5.22448 7.29247C4.96309 7.66809 4.73209 8.06649 4.53509 8.48412L3.80006 8.21659C3.41082 8.07492 2.98044 8.27561 2.83877 8.66484C2.6971 9.05407 2.89779 9.48446 3.28703 9.62612L4.02196 9.89362C3.90647 10.3323 3.8262 10.7853 3.78437 11.2494H3.00073C2.58652 11.2494 2.25073 11.5852 2.25073 11.9994C2.25073 12.4136 2.58652 12.7494 3.00073 12.7494H3.78437C3.82619 13.2135 3.90644 13.6665 4.02192 14.1052L3.28678 14.3728C2.89755 14.5145 2.69685 14.9448 2.83852 15.3341C2.98019 15.7233 3.41058 15.924 3.79981 15.7823L4.53502 15.5147C4.73205 15.9324 4.9631 16.331 5.22461 16.7067L4.62411 17.2106C4.30681 17.4768 4.26542 17.9499 4.53167 18.2672C4.79792 18.5845 5.27099 18.6259 5.58829 18.3596L6.18941 17.8552C6.51507 18.1784 6.86754 18.4747 7.2432 18.7403L6.85112 19.4194C6.64401 19.7781 6.76692 20.2368 7.12564 20.4439C7.48436 20.651 7.94305 20.5281 8.15016 20.1694L8.54161 19.4914C8.9554 19.6827 9.38772 19.8408 9.83514 19.9622L9.6992 20.7332C9.62727 21.1411 9.89965 21.5301 10.3076 21.602C10.7155 21.6739 11.1045 21.4015 11.1764 20.9936L11.3126 20.2211C11.5395 20.2398 11.769 20.2494 12.0007 20.2494C12.2324 20.2494 12.4618 20.2398 12.6887 20.2211L12.8249 20.9937C12.8968 21.4016 13.2858 21.674 13.6937 21.602C14.1016 21.5301 14.374 21.1411 14.3021 20.7332L14.1662 19.9623C14.6136 19.8409 15.046 19.6828 15.4598 19.4914L15.8512 20.1692C16.0583 20.528 16.517 20.6509 16.8757 20.4438C17.2344 20.2366 17.3573 19.778 17.1502 19.4192L16.7582 18.7403C17.134 18.4746 17.4866 18.1783 17.8123 17.8549L18.4131 18.359C18.7304 18.6253 19.2034 18.5839 19.4697 18.2666C19.7359 17.9493 19.6946 17.4762 19.3772 17.2099L18.7771 16.7063C19.0385 16.3308 19.2694 15.9324 19.4664 15.5149L20.2015 15.7825C20.5907 15.9242 21.0211 15.7235 21.1628 15.3342C21.3044 14.945 21.1038 14.5146 20.7145 14.3729L19.9795 14.1054C20.095 13.6666 20.1753 13.2135 20.2171 12.7494H21.0007ZM18.3435 9.69075C18.3374 9.67412 18.332 9.65741 18.3272 9.64066C18.0593 8.92262 17.6728 8.26243 17.1913 7.68399C17.1846 7.67656 17.1779 7.66895 17.1714 7.66119C17.165 7.65358 17.1588 7.64588 17.1528 7.6381C16.6625 7.05954 16.0766 6.56465 15.4194 6.17787C15.4046 6.17061 15.3901 6.16281 15.3756 6.15448C15.3608 6.14593 15.3464 6.13695 15.3324 6.12756C14.6882 5.76124 13.9778 5.49788 13.2236 5.35987C13.2067 5.35805 13.1897 5.35566 13.1728 5.35266C13.1563 5.34976 13.1401 5.34635 13.1241 5.34244C12.7588 5.28123 12.3835 5.24938 12.0007 5.24938C11.6183 5.24938 11.2435 5.28112 10.8788 5.34208C10.8623 5.34616 10.8455 5.34971 10.8285 5.3527C10.8109 5.3558 10.7934 5.35826 10.7759 5.3601C10.005 5.5013 9.28044 5.77342 8.62548 6.15241C7.94757 6.54468 7.34445 7.05116 6.84231 7.64545C6.83827 7.65052 6.83415 7.65556 6.82995 7.66057C6.82783 7.6631 6.82568 7.66562 6.82353 7.66813C6.82127 7.67075 6.819 7.67335 6.81671 7.67593C6.33198 8.2565 5.94308 8.91961 5.67409 9.64102C5.66929 9.65771 5.66388 9.67434 5.65785 9.6909C5.65182 9.70747 5.64527 9.72369 5.63822 9.73956C5.38727 10.4462 5.25073 11.2069 5.25073 11.9994C5.25073 12.7937 5.38795 13.556 5.63997 14.2639C5.64626 14.2783 5.65215 14.293 5.6576 14.308C5.66305 14.323 5.66799 14.338 5.67243 14.3531C6.21998 15.8246 7.26613 17.0536 8.60555 17.8346C8.60934 17.8367 8.61311 17.8387 8.61688 17.8408C8.6198 17.8425 8.62272 17.8441 8.62564 17.8458C8.63265 17.8499 8.63958 17.854 8.64641 17.8583C9.3043 18.2357 10.0318 18.5056 10.8049 18.6438C10.8128 18.6449 10.8207 18.6462 10.8285 18.6476C10.8358 18.6489 10.8431 18.6503 10.8504 18.6517C11.2242 18.7159 11.6086 18.7494 12.0007 18.7494C12.3929 18.7494 12.7773 18.7159 13.1512 18.6517C13.1584 18.6503 13.1655 18.6489 13.1728 18.6476C13.1805 18.6462 13.1883 18.645 13.1961 18.6439C13.9675 18.506 14.6935 18.2371 15.3503 17.861C15.3586 17.8557 15.3671 17.8506 15.3757 17.8457C15.3839 17.8409 15.3922 17.8363 15.4006 17.8319C16.07 17.4409 16.666 16.9379 17.163 16.3486L17.1716 16.3382L17.1808 16.3274C17.6679 15.745 18.0587 15.0792 18.3285 14.3546C18.333 14.339 18.3381 14.3236 18.3437 14.3082C18.3493 14.2927 18.3554 14.2776 18.3619 14.2627C18.6137 13.5552 18.7507 12.7933 18.7507 11.9994C18.7507 11.2068 18.6141 10.4462 18.3632 9.73969C18.3561 9.72373 18.3495 9.70741 18.3435 9.69075Z" fill="#0F172A"/>
</svg>

<svg xmlns="http://www.w3.org/2000/svg" viewBox="0 0 24 24" fill="currentColor" aria-hidden="true">
  <path d="M17.004 10.407c.138.435-.216.842-.672.842h-3.465a.75.75 0 01-.65-.375l-1.732-3c-.229-.396-.053-.907.393-1.004a5.252 5.252 0 016.126 3.537zM8.12 8.464c.307-.338.838-.235 1.066.16l1.732 3a.75.75 0 010 .75l-1.732 3.001c-.229.396-.76.498-1.067.16A5.231 5.231 0 016.75 12c0-1.362.519-2.603 1.37-3.536zM10.878 17.13c-.447-.097-.623-.608-.394-1.003l1.733-3.003a.75.75 0 01.65-.375h3.465c.457 0 .81.408.672.843a5.252 5.252 0 01-6.126 3.538z"/>
  <path fill-rule="evenodd" d="M21 12.75a.75.75 0 000-1.5h-.783a8.22 8.22 0 00-.237-1.357l.734-.267a.75.75 0 10-.513-1.41l-.735.268a8.24 8.24 0 00-.689-1.191l.6-.504a.75.75 0 10-.964-1.149l-.6.504a8.3 8.3 0 00-1.054-.885l.391-.678a.75.75 0 10-1.299-.75l-.39.677a8.188 8.188 0 00-1.295-.471l.136-.77a.75.75 0 00-1.477-.26l-.136.77a8.364 8.364 0 00-1.377 0l-.136-.77a.75.75 0 10-1.477.26l.136.77c-.448.121-.88.28-1.294.47l-.39-.676a.75.75 0 00-1.3.75l.392.678a8.29 8.29 0 00-1.054.885l-.6-.504a.75.75 0 00-.965 1.149l.6.503a8.243 8.243 0 00-.689 1.192L3.8 8.217a.75.75 0 10-.513 1.41l.735.267a8.222 8.222 0 00-.238 1.355h-.783a.75.75 0 000 1.5h.783c.042.464.122.917.238 1.356l-.735.268a.75.75 0 10.513 1.41l.735-.268c.197.417.428.816.69 1.192l-.6.504a.75.75 0 10.963 1.149l.601-.505c.326.323.679.62 1.054.885l-.392.68a.75.75 0 101.3.75l.39-.679c.414.192.847.35 1.294.471l-.136.771a.75.75 0 101.477.26l.137-.772a8.376 8.376 0 001.376 0l.136.773a.75.75 0 101.477-.26l-.136-.772a8.19 8.19 0 001.294-.47l.391.677a.75.75 0 101.3-.75l-.393-.679a8.282 8.282 0 001.054-.885l.601.504a.75.75 0 10.964-1.15l-.6-.503a8.24 8.24 0 00.69-1.191l.735.268a.75.75 0 10.512-1.41l-.734-.268c.115-.438.195-.892.237-1.356h.784zm-2.657-3.06a6.744 6.744 0 00-1.19-2.053 6.784 6.784 0 00-1.82-1.51A6.704 6.704 0 0012 5.25a6.801 6.801 0 00-1.225.111 6.7 6.7 0 00-2.15.792 6.784 6.784 0 00-2.952 3.489.758.758 0 01-.036.099A6.74 6.74 0 005.251 12a6.739 6.739 0 003.355 5.835l.01.006.01.005a6.706 6.706 0 002.203.802c.007 0 .014.002.021.004a6.792 6.792 0 002.301 0l.022-.004a6.707 6.707 0 002.228-.816 6.781 6.781 0 001.762-1.483l.009-.01.009-.012a6.744 6.744 0 001.18-2.064c.253-.708.39-1.47.39-2.264a6.74 6.74 0 00-.408-2.308z" clip-rule="evenodd"/>
</svg>
